packages/Iconly/src/Activity4Icon/index.svg

<svg xmlns="http://www.w3.org/2000/svg" width="24" height="24" viewBox="0 0 24 24"><g fill="#200E32" fill-rule="nonzero" transform="translate(2 2)"><path d="M13.3131412,2 C13.2658662,2.24300435 13.2423069,2.49001448 13.2427943,2.73756098 C13.2427943,4.95855389 15.0459035,6.75902439 17.2701514,6.75902439 C17.5150672,6.75781841 17.7593623,6.73430636 18,6.68878049 L18,6.68878049 L18,14.6614634 C18,18.0156098 16.0214949,20 12.6624328,20 L12.6624328,20 L5.34636053,20 C1.97850513,20 0,18.0156098 0,14.6614634 L0,14.6614634 L0,7.35609756 C0,4.00195122 1.97850513,2 5.34636053,2 L5.34636053,2 Z M13.4339935,7.99425506 L13.3166613,8.00158564 C13.121116,8.02971618 12.9453452,8.13580336 12.8295066,8.29560976 L12.8295066,8.29560976 L10.420127,11.395122 L7.6765999,9.23512195 C7.51996548,9.11309397 7.32070618,9.05921499 7.12381024,9.08564965 C6.92691431,9.11208431 6.74898348,9.21660372 6.63019052,9.37560976 L6.63019052,9.37560976 L3.67562286,13.1863415 C3.57176986,13.3157889 3.51585985,13.4770704 3.51734245,13.6429268 L3.51734245,13.6429268 L3.51993749,13.753289 C3.54857939,14.043292 3.74748433,14.293874 4.03237714,14.3838051 C4.35288155,14.4849776 4.7013777,14.3573088 4.88031265,14.0731707 L4.88031265,14.0731707 L7.35124573,10.8770732 L10.0947728,13.0282927 C10.2508188,13.1540963 10.4513879,13.2111304 10.6503967,13.1862907 C10.8494055,13.161451 11.0297434,13.0568732 11.1499756,12.8965854 L11.1499756,12.8965854 L14.0078163,9.20878049 L14.0078163,9.19121951 C14.2524706,8.86246548 14.1900503,8.39889364 13.8671226,8.14634146 C13.7108191,8.02568461 13.5122065,7.9734551 13.3166613,8.00158564 Z"/><circle cx="17.5" cy="2.5" r="2.5" opacity=".4"/></g></svg>

<svg xmlns="http://www.w3.org/2000/svg" viewBox="0 0 24 24">
  <g fill="#200E32" transform="translate(2 2)">
    <path d="M13.313 2a4.024 4.024 0 003.957 4.759c.245-.001.49-.025.73-.07v7.972C18 18.016 16.021 20 12.662 20H5.346C1.98 20 0 18.016 0 14.661V7.356C0 4.002 1.979 2 5.346 2zm.121 5.994l-.117.008a.73.73 0 00-.487.294l-2.41 3.1-2.743-2.16a.74.74 0 00-1.047.14l-2.954 3.81a.72.72 0 00-.159.457l.003.11a.738.738 0 001.36.32l2.471-3.196 2.744 2.151a.74.74 0 001.055-.131l2.858-3.688V9.19a.754.754 0 00-.14-1.045.73.73 0 00-.551-.144z"/>
    <circle cx="17.5" cy="2.5" r="2.5" opacity=".4"/>
  </g>
</svg>
